X:1
T:Title
%%score ( 1 2 ) ( 3 4 )
L:1/8
Q:1/4=100
M:4/4
K:Db
V:1 treble nm="Strings 1, Treble"
V:2 treble 
V:3 bass nm="Strings 1, Bass"
V:4 bass 
V:1
 [DF]2 [D_F]2 [D=F]2 [DA]2 | [DF]2 [CE]2 D4 | [GB]2 [G=A]2 [GB]2 [Gd]2 | [GB]2 [G=A]2 [F_A]4 | %4
w: 1.~Long~ lone~ years~ I~|lived~ in~ sin,~|Wretch ed~ slave~ I~|was~ with in;~|
 [DF]2 [D_F]2 [D=F]2 [CF]2 | [FB]2 [FA]2 [EG]4 | z2 .F2 z4 | %7
w: Gosh en~ was~ my~|dwell ing~ place,~|and~|
 [B,D]2 [A,C]2 [A,D]2[Q:1/4=100] z2[Q:1/4=12] | z8 | [FA]>[EG] [DF][EG] [FA]4 | %10
w: my~ dis grace.~|||
 [Bd]>[Ac] [GB][Ac] [Bd]4 | [FA]>[FA] [FA][GB] [FA][DF]D[DF] | [CE]8 | [FA]>[EG] [DF][EG] [FA]4 | %14
w: ||||
 [Bd]>[Ac] [GB][Ac] [Bd]4 | [Ac]>[AB] A[AB] [Ac]A[Ac][Ge] | [Fd]8 |] %17
w: |||
V:2
 x8 | x8 | x8 | x8 | x8 | x8 | [CE]2 D-[DG] [CF]2 [CE]2 | x8 | x8 | x8 | x8 | x8 | x8 | x8 | x8 | %15
w: ||||||* * * * was~|||||||||
 x8 | x8 |] %17
w: ||
V:3
 [D,A,]2 [D,=G,]2 [D,A,]2 [D,F,]2 | [D,A,]2 [A,,G,]2 [D,F,]4 | [G,D]2 [G,C]2 [G,D]2 [G,B,]2 | %3
w: |||
 [G,D]2 [G,D]2 [D,D]4 | [D,A,]2 [D,=G,]2 [D,A,]2 [C,=A,]2 | [B,,B,]2 [B,,B,]2 [E,B,]4 | %6
w: |||
 [E,G,]2 A,B, [C,A,]2 [A,,A,]2 | [B,,G,]2 [C,G,]2 [D,F,]2 A,,2 | D,4 F,4 | %9
w: |* * * But~|now~ I'm~|
 [D,D]>[D,D] [D,D][D,D] DA,F,A, | [G,D]>[G,D] [G,D][G,D] DB,DB, | %11
w: ||
 [D,D]>[D,D] [D,D][D,D] [D,A,][D,A,][D,F,][D,F,] | %12
w: |
 A,,-[A,,-A,][A,,-C][A,,B,] A,-[G,A,-][F,A,-][E,A,] | [D,D]>[D,D] [D,D][D,D] DA,F,A, | %14
w: ||
 [G,D]>[G,D] [G,D][G,D] DB,DB, | [A,E]>[A,D] [A,C][A,B,] [A,,A,][A,,A,][C,A,][A,,A,] | [D,D]8 |] %17
w: |||
V:4
 x8 | x8 | x8 | x8 | x8 | x8 | z2 D,2 z4 | x8 | x8 | z4 D,4 | z4 G,4 | x8 | .E,2 z2 .A,,2 z2 | %13
 z4 D,4 | z4 G,4 | x8 | x8 |] %17

